X: 34071
T: Reel De Montebello
R: reel
M: 4/4
K: Aminor
|:EABc EcBA|FABc ecBA|GABc dBGB|edBA GEE/F/D|
EABc EcBA|FABc AcBA|GABc dBGE|1 EDEG A3A:|2 EDEG A2^ce||
K:Amix
aece gecA|GABc dcBd|gddf ddgd|edef (3efe ce|
aece gecA|GABc dcBd|gedg edBd|1 cBcd cAce:|2 cBcd cBAG|E8||

